src/static/src/img/registration/success.svg

<svg height="210" viewBox="0 0 217 210" width="217" xmlns="http://www.w3.org/2000/svg" xmlns:xlink="http://www.w3.org/1999/xlink"><mask id="a" fill="#fff"><path d="m.95733999.25075h5.8216456v14.8928187h-5.8216456z" fill="none"/></mask><mask id="b" fill="#fff"><path d="m.67004466.78977289h6.96615192v6.21022711h-6.96615192z" fill="none"/></mask><g fill="none" fill-rule="evenodd" transform="translate(-14)"><circle cx="125.913716" cy="105" fill="#e6f4ea" fill-rule="nonzero" r="105"/><g transform="translate(76.913716 56)"><path d="m0 0h98v98h-98z"/><path d="m35.5167709 66.8150634-17.5429221-16.4809844c-2.4788579-1.4106723-4.4701408-1.4106723-5.9738488 0-1.503708 1.4106724-1.503708 3.2682414 0 5.572707l23.5167709 22.093214c32.0940259-29.7606264 48.9217689-45.5697241 50.4832291-47.4272931 1.042584-1.2402952 2.25044-3.2746304 0-5.5727069-1.5002933-1.532051-3.4775531-1.532051-5.9317794 0z" fill="#46484c" fill-rule="nonzero"/></g><g fill="#46484c" transform="matrix(.95105652 -.30901699 .30901699 .95105652 .913716 39.777087)"><path d="m43.1005598 25.09295c1.1330642-.2958869 2.2841454.1350357 2.9507715 1.0028385.2162031.2819862.384361.6116321.4804513.9770227l.3763535 1.4258178c.3923685 1.4873782-.5084776 3.0105011-2.0098878 3.4076649-1.4994084.3951779-3.0308468-.4964547-3.4292209-1.9798612l-.3763535-1.4258178c-.3943705-1.4873782.5064757-3.0144728 2.0078859-3.4076649"/><path d="m36.1005598 6.09295004c1.1330642-.29588698 2.2841454.13503567 2.9507715 1.00283843.2162031.28198625.384361.61163215.4804513.97702278l.3763535 1.4258178c.3923685 1.48737815-.5084776 3.01050105-2.0098878 3.40766485-1.4994084.3951779-3.0308468-.4964547-3.4292209-1.9798612l-.3763535-1.42581783c-.3943705-1.48737818.5064757-3.01447273 2.0078859-3.40766483"/><path d="m61.0021352 22.0000042c1.2491104-.0019983 2.3188612.7093906 2.769395 1.7225202.147331.3297167.2284698.691406.2284698 1.0690815v1.4027949c0 1.5446729-1.3451957 2.8015931-3 2.8055897-1.6569395.0039965-2.9978648-1.2469288-3-2.7955983v-1.4007966c0-1.5426747 1.347331-2.8015931 3.0021352-2.8035914"/><path d="m4.0362.25075c1.04.023375 1.934.643875 2.4 1.547.228.444125.354.954125.342 1.498125l-.202 8.9335c-.038 1.64475-1.328 2.951625-2.876 2.913375-1.554-.034-2.78-1.394-2.742-3.043l.204-8.93775c.038-1.6405 1.326-2.9495 2.874-2.91125" mask="url(#a)" transform="translate(57)"/><path d="m.32605362 43.6883137c.55415284-1.1607843 1.67268274-1.7835897 2.79325748-1.6764404.36193746.0357164.72591976.145098 1.07149847.3415384l1.26984838.7254902c1.40276327.7991554 1.94464704 2.6965913 1.21463758 4.2323982-.73000945 1.5380392-2.46403752 2.131825-3.86680079 1.334902l-1.26984838-.7254902c-1.40276327-.8013877-1.94464704-2.6988236-1.21259274-4.2323982"/><path d="m.9004 2.486c.462-1.076 1.514-1.71 2.614-1.696.358.004.72.076 1.07.23l1.36.588c1.422.616 2.074 2.272 1.462 3.698-.61 1.424-2.26 2.074-3.682 1.468l-1.362-.59c-1.42-.618-2.076-2.274-1.462-3.698" mask="url(#b)" transform="translate(19 49)"/><path d="m27.825856 34.9217411c.8570282-.8988343 2.1351639-1.1431982 3.2186168-.7203424.3512757.1381188.6835064.3442344.9734147.6247217l1.0707561 1.0284534c1.1807943 1.1389485 1.2188845 3.0301128.0867609 4.2243087-1.1342397 1.1899461-3.0112372 1.2324442-4.1962637.0956207l-1.0707561-1.0327032c-1.1786782-1.1368235-1.2146523-3.025863-.0825287-4.2200589"/><path d="m10.9064078 18.8039768c.7880346-.7384676 1.8849787-.968213 2.8621416-.6892364.4812264.1353857.9330329.3917981 1.3049853.7712883l6.108844 6.2318458c1.1242626 1.1487273 1.0843356 2.9764345-.0903613 4.0738794-1.1746969 1.1077013-3.0386613 1.0728293-4.1650254-.0800007l-6.1109455-6.2359483c-1.12216121-1.1446247-1.08223413-2.972332.0903613-4.0718281"/></g></g></svg>

<?xml version="1.0" encoding="UTF-8"?>
<svg width="217px" height="210px" viewBox="0 0 217 210" version="1.1" xmlns="http://www.w3.org/2000/svg" xmlns:xlink="http://www.w3.org/1999/xlink">
    <!-- Generator: Sketch 51 (57462) - http://www.bohemiancoding.com/sketch -->
    <title>Group 3</title>
    <desc>Created with Sketch.</desc>
    <defs>
        <polygon id="path-1" points="0.95733999 0.25075 6.77898559 0.25075 6.77898559 15.1435687 0.95733999 15.1435687"></polygon>
        <polygon id="path-3" points="0.670044656 0.789772888 7.63619658 0.789772888 7.63619658 7 0.670044656 7"></polygon>
    </defs>
    <g id="Survey-journey-MVP" stroke="none" stroke-width="1" fill="none" fill-rule="evenodd">
        <g id="Success" transform="translate(-203.000000, -286.000000)">
            <g id="Group-3" transform="translate(189.000000, 286.000000)">
                <circle id="Oval-4" fill="#E6F4EA" fill-rule="nonzero" cx="125.913716" cy="105" r="105"></circle>
                <g id="baseline-check-24px-(1)" transform="translate(76.913716, 56.000000)">
                    <polygon id="Shape" points="0 0 98 0 98 98 0 98"></polygon>
                    <path d="M35.5167709,66.8150634 L17.9738488,50.334079 C15.4949909,48.9234067 13.503708,48.9234067 12,50.334079 C10.496292,51.7447514 10.496292,53.6023204 12,55.906786 L35.5167709,78 C67.6107968,48.2393736 84.4385398,32.4302759 86,30.5727069 C87.042584,29.3324117 88.25044,27.2980765 86,25 C84.4997067,23.467949 82.5224469,23.467949 80.0682206,25 L35.5167709,66.8150634 Z" id="Shape" fill="#46484C" fill-rule="nonzero"></path>
                </g>
                <g id="Group-19" transform="translate(40.000000, 56.518126) rotate(-18.000000) translate(-40.000000, -56.518126) translate(8.000000, 28.518126)">
                    <path d="M43.1005598,25.09295 C44.233624,24.7970631 45.3847052,25.2279857 46.0513313,26.0957885 C46.2675344,26.3777747 46.4356923,26.7074206 46.5317826,27.0728112 L46.9081361,28.498629 C47.3005046,29.9860072 46.3996585,31.5091301 44.8982483,31.9062939 C43.3988399,32.3014718 41.8674015,31.4098392 41.4690274,29.9264327 L41.0926739,28.5006149 C40.6983034,27.0132367 41.5991496,25.4861421 43.1005598,25.09295" id="Fill-1" fill="#46484C"></path>
                    <path d="M36.1005598,6.09295004 C37.233624,5.79706306 38.3847052,6.22798571 39.0513313,7.09578847 C39.2675344,7.37777472 39.4356923,7.70742062 39.5317826,8.07281125 L39.9081361,9.49862905 C40.3005046,10.9860072 39.3996585,12.5091301 37.8982483,12.9062939 C36.3988399,13.3014718 34.8674015,12.4098392 34.4690274,10.9264327 L34.0926739,9.50061487 C33.6983034,8.01323669 34.5991496,6.48614214 36.1005598,6.09295004" id="Fill-3" fill="#46484C"></path>
                    <path d="M61.0021352,22.0000042 C62.2512456,21.9980059 63.3209964,22.7093948 63.7715302,23.7225244 C63.9188612,24.0522411 64,24.4139304 64,24.7916059 L64,26.1944008 C64,27.7390737 62.6548043,28.9959939 61,28.9999905 C59.3430605,29.003987 58.0021352,27.7530617 58,26.2043922 L58,24.8035956 C58,23.2609209 59.347331,22.0020025 61.0021352,22.0000042" id="Fill-5" fill="#46484C"></path>
                    <g id="Group-9" transform="translate(57.000000, 0.000000)">
                        <mask id="mask-2" fill="white">
                            <use xlink:href="#path-1"></use>
                        </mask>
                        <g id="Clip-8"></g>
                        <path d="M4.0362,0.25075 C5.0762,0.274125 5.9702,0.894625 6.4362,1.79775 C6.6642,2.241875 6.7902,2.751875 6.7782,3.295875 L6.5762,12.229375 C6.5382,13.874125 5.2482,15.181 3.7002,15.14275 C2.1462,15.10875 0.9202,13.74875 0.9582,12.09975 L1.1622,3.162 C1.2002,1.5215 2.4882,0.2125 4.0362,0.25075" id="Fill-7" fill="#46484C" mask="url(#mask-2)"></path>
                    </g>
                    <path d="M0.326053623,43.6883137 C0.88020646,42.5275294 1.99873636,41.904724 3.1193111,42.0118733 C3.48124856,42.0475897 3.84523086,42.1569713 4.19080957,42.3534117 L5.46065795,43.0789019 C6.86342122,43.8780573 7.40530499,45.7754932 6.67529553,47.3113001 C5.94528608,48.8493393 4.21125801,49.4431251 2.80849474,48.6462021 L1.53864636,47.9207119 C0.135883093,47.1193242 -0.406000677,45.2218883 0.326053623,43.6883137" id="Fill-10" fill="#46484C"></path>
                    <g id="Group-14" transform="translate(19.000000, 49.000000)">
                        <mask id="mask-4" fill="white">
                            <use xlink:href="#path-3"></use>
                        </mask>
                        <g id="Clip-13"></g>
                        <path d="M0.9004,2.486 C1.3624,1.41 2.4144,0.776 3.5144,0.79 C3.8724,0.794 4.2344,0.866 4.5844,1.02 L5.9444,1.608 C7.3664,2.224 8.0184,3.88 7.4064,5.306 C6.7964,6.73 5.1464,7.38 3.7244,6.774 L2.3624,6.184 C0.9424,5.566 0.2864,3.91 0.9004,2.486" id="Fill-12" fill="#46484C" mask="url(#mask-4)"></path>
                    </g>
                    <path d="M27.825856,34.9217411 C28.6828842,34.0229068 29.9610199,33.7785429 31.0444728,34.2013987 C31.3957485,34.3395175 31.7279792,34.5456331 32.0178875,34.8261204 L33.0886436,35.8545738 C34.2694379,36.9935223 34.3075281,38.8846866 33.1754045,40.0788825 C32.0411648,41.2688286 30.1641673,41.3113267 28.9791408,40.1745032 L27.9083847,39.1418 C26.7297065,38.0049765 26.6937324,36.115937 27.825856,34.9217411" id="Fill-15" fill="#46484C"></path>
                    <path d="M10.9064078,18.8039768 C11.6944424,18.0655092 12.7913865,17.8357638 13.7685494,18.1147404 C14.2497758,18.2501261 14.7015823,18.5065385 15.0735347,18.8860287 L21.1823787,25.1178745 C22.3066413,26.2666018 22.2667143,28.094309 21.0920174,29.1917539 C19.9173205,30.2994552 18.0533561,30.2645832 16.926992,29.1117532 L10.8160465,22.8758049 C9.69388529,21.7311802 9.73381237,19.9034729 10.9064078,18.8039768" id="Fill-17" fill="#46484C"></path>
                </g>
            </g>
        </g>
    </g>
</svg>
